X:1
T:Ecce quomodo moritur - Victoria
T:#
%%score [ 1 2 3 4 ]
L:1/8
Q:1/4=200
M:none
K:F
V:1 treble nm="Soprano " snm="S"
V:2 treble nm="Alto" snm="A"
V:3 treble-8 nm="Tenor" snm="T"
V:4 bass nm="Bass" snm="B"
V:1
"^Ecce quomodo moritur""^Tomas Luis deVictoria\n(1548-1611)" z8 B8- | B8 A8- | A8 z4 A4- | %3
w: Ec\-|* ce|* quo\-|
 A4 A4 A8 | G12 G4 | ^F8 G8 |[M:4/2] ^F4 A4 B8 | A4 F4 G4 A4 | (B12 A2 G2 | A4 G8 ^F4) | %10
w: * mo- do|mo- ri-|tur ju-|stus, et ne-|mo per- ci- pit|cor\- * *||
 G4 B4 d4 d4 | d8 c4 A4 | (B4 A8 G4) | A8 z4 A4 | B4 c4 d8 | _e4 d8 c4 | d16- | d16 | z8 z4 G4 | %19
w: de: et vi- ri|ju- sti tol-|lun\- * *|tur, et|vi- ri ju-|sti tol- lun-|tur:||sub-|
 B4 A4 (G2 A2 B2 c2 | d4)[Q:1/4=200] (d6[Q:1/4=200] c2[Q:1/4=200] c4- | %21
w: la- tus est * * *|* ju\- * *|
[Q:1/4=200] c4[Q:1/4=200] B4[Q:1/4=200] A8 |[Q:1/4=200] d16) |[Q:1/4=200] d16!fine! |] G16 | %25
w: ||stus:|Et|
 =B8 c8 | d4 (d8 ^c4) | d8 z4 B4 | d4 d4 c8 | d16 | d16 ||[M:4/2] z16 | z16 | z16 | z16 | z16 | %36
w: e- rit|in pa\- *|ce me-|mo- ri- a|e-|ius.||||||
[M:4/2] z16 | z16 | z16 | z16 | z16 | z16 |[M:4/2] z16 | z16 | z16 | z16 | z16 |[M:4/2] G16 | %48
w: |||||||||||Et|
 =B8 c8 | d4 (d8 ^c4) | d8 z4 B4 | d4 d4 c8 | d16 |"^al fine" d16 |] %54
w: e- rit|in pa\- *|ce me-|mo- ri- a|e-|ius.|
V:2
 G16 | D16 | F12 F4 | F8 z4 (F4- | F4 E2 D2 E4) E4 | D4 (D8 C4) |[M:4/2] D8 z4 D4 | F8 E4 C4 | %8
w: Ec-|ce|quo- mo-|do mo\-|* * * * ri-|tur ju\- *|stus, et|ne- mo per-|
 D4 E4 (F8- | F4 E2 D2 C8) | D8 z8 | z16 | z8 z4 D4 | E8 ^F8 | G4 A6 G2 (G4- | G4 ^F4) G8 | %16
w: ci- pit cor\-||de:||et|vi- ri|ju- sti tol- lun\-|* * tur:|
 z4 A4 B6 B2 | B4 B4 F4 G4 | C8 D8 | z8 z4 G4 | B4 A4 G4 (G4- | G2 FE D2 E2 F2 G2 A4- | %22
w: a fa- ci-|e i- ni- qui-|ta- tis|sub-|la- tus est ju\-||
 A2 G2 G8 ^F4) | G16 |] z8 G8- | G8 G8 | B4 B4 A8 | ^F4 A4 B4 B4 | F4 (B8 A4 | B8 A8) | =B16 || %31
w: |stus:|Et|* e-|rit in pa-|ce me- mo- ri-|a e\- *||ius.|
"^Trio" z16 | z16 | z16 | z4 D4 F4 E4 | D8 z4 G4 | B4 A4 G8- | G8 z8 | z16 | z16 | z4 D8 E4- | %41
w: |||Ob- mu- tu-|it, ob-|mu- tu- it,||||de an\-|
 E4 F8 G4- | G4 A8 F4- | F4 G4 G4 A4- | A2 A2 A4 B4 (A4- | A2 G2 G8) ^F4 | G16 | z8 G8- | G8 G8 | %49
w: * gu- sti\-|* a, et|* de ju- di\-|* ci- o sub- la\-|* * * tus|est.|Et|* e-|
 B4 B4 A8 | ^F4 A4 B4 B4 | F4 (B8 A4 | B8 A8) | =B16 |] %54
w: rit in pa-|ce me- mo- ri-|a e\- *||ius.|
V:3
 z16 | z8 d8- | d8 A8 | c12 c4 | c4 c8 c4 | A8 G8 |[M:4/2][K:treble-8] A8 z4 G4 | d8 c8 | %8
w: |Ec\-|* ce|quo- mo-|do mo- ri-|tur ju-|stus, et|ne- mo|
 G8 d4 d4 | (c6 B2 A8) | G8 z4 f4 | f4 f4 f8 | d4 ^c4 (d8- | d4 ^c4) d8 | z4 A4 B4 B4 | %15
w: per- ci- pit|cor\- * *|de: et|vi- ri ju-|sti tol- lun\-|* * tur,|et vi- ri|
 c4 d4 _e4 e4 | d8 z4 G4 | d6 d2 d4 d4 | f4 e4 g8 | d8 z8 | z4 d4 B4 c4 | d8 (d6 c2 | %22
w: ju- sti tol- lun-|tur: a|fa- ci- e in-|i- qui- ta-|tis|sub- la- tus|est ju\- *|
 B4 A2 G2 A8) | G16 |] z8 d8- | d8 e8 | f4 g4 e8 | d16 | z4 d4 f4 f4 | d4 (g8 ^f4) | g16 || %31
w: |stus:|Et|* e-|rit in pa-|ce|me- mo- ri-|a e\- *|ius.|
 d12 d4 | _e8 d4 B4 | c4 d4 _e4 c4 | d8 z4 A4 | (B4 A2 G2 A4) G4 | d8 z4 d4 | d4 e4 f6 e2 | %38
w: Tam- quam|a- gnus co-|ram ton- den- te|se ob-|mu\- * * * tu-|it, et|non a- pe- ru-|
 d4 f4 (e4 d2 c2 | d2 e2 f2 d2 e8) | d8 z4 B4 | c8 d8 | e8 f8 | d8 e4 e4 | f6 f2 f4 e4 | d8 c8 | %46
w: it os su\- * *||um de|an- gu-|sti- a,|et de ju-|di- ci- o sub-|la- tus|
 d16 | z8 d8- | d8 e8 | f4 g4 e8 | d16 | z4 d4 f4 f4 | d4 (g8 ^f4) | g16 |] %54
w: est.|Et|* e-|rit in pa-|ce|me- mo- ri-|a e\- *|ius.|
V:4
 z8 G,8- | G,8 D,8- | D,8 F,8- | F,4 F,4 F,8 | C,12 C,4 | D,8 _E,8 |[M:4/2] D,8 z8 | z16 | z16 | %9
w: Ec\-|* ce|* quo\-|* mo- do|mo- ri-|tur ju-|stus,|||
 z16 | z4 G,4 B,4 B,4 | B,8 A,4 F,4 | (G,4 A,4 B,8) | A,8 z8 | z16 | z16 | z4 D,4 G,6 G,2 | %17
w: |et vi- ri|ju- sti tol-|lun\- * *|tur:|||a fa- ci-|
 G,4 G,4 B,4 B,4 | A,8 G,8 | z16 | z4 D,4 _E,4 C,4 | G,8 D,8- | D,16 | G,16 |] z8 G,8- | G,8 C8 | %26
w: e in- i- qui-|ta- tis||sub- la- tus|est iu\-||stus:|Et|* e-|
 B,4 G,4 A,8 | D,8 z4 G,4 | B,4 B,4 F,8 | (B,6 C2 D8) | G,16 || z8 G,8- | G,4 A,4 B,8 | %33
w: rit in pa-|ce me-|mo- ri- a|e\- * *|ius.|Tam\-|* quam a-|
 A,4 F,4 G,4 A,4 | B,4 G,4 A,8 | z4 D,4 F,4 E,4 | D,8 z4 G,4 | B,4 C4 D6 C2 | B,4 A,4 (G,6 A,2 | %39
w: gnus co- ram ton-|den- te se|ob- mu- tu-|it, et|non a- pe- ru-|it os su\- *|
 B,2 C2 D8 ^C4) | D8 G,8 | A,8 B,8 | C8 D8 | B,8 C4 C4 | D6 D2 D4 C4 | B,8 A,8 | G,16 | z8 G,8- | %48
w: |um de|an- gu-|sti- a,|et de ju-|di- ci- o sub-|la- tus|est.|Et|
 G,8 C8 | B,4 G,4 A,8 | D,8 z4 G,4 | B,4 B,4 F,8 | (B,6 C2 D8) | G,16 |] %54
w: * e-|rit in pa-|ce me-|mo- ri- a|e\- * *|ius.|

